X:1
T:SOME GIRLS ARE BIGGER THAN OTHERS
C:Marr
Z:All Rights Reserved
L:1/8
Q:1/4=120
M:4/4
K:E
V:1 treble nm="MusicXML Part"
%%MIDI program 0
V:1
|:"C#m" C G2 E- E2 B,G, |"A" A,2 EF-"B" FE F2 |"C#m" C G2 E- E B,2 G, |"A" A,CEF-"B" FE F2 | %4
w: ||||
w: ||||
w: ||||
"C#m" C G2 E- EDB,G, |"A" A,CEF-"B" FE F2 |"E" E8- |"E" E4 z2 GG |"C#m" GFEE EEFG | %9
w: |||* From the|ice _ age _ _ _ to the|
w: |||* As _|An thon _ y said to Cle o|
w: |||* On the|shop _ floor _ _ _ there's a|
"Bsus4" F2 C4 D2 |"Amaj7" EGzG- (3:2:2G F2- (3:2:2F G2 |"F#m7" C8 |"G#m" D2 DF- F>E- ED- | %13
w: dole age there|is but one _ con _ cern|_|I have just _ dis _ cov|
w: pat ra as|he o pened a crate of ale|_|Oh I swear _ _ _ _|
w: caln' der as|ob vi ous _ as _ snow|_|as if we did n't know _|
 D B,3 z4 |:"C#m" G G2 F EFGF |"A" C6"B" G2- |"C#m" G G2 F EFGF |"A" C4-"B" C4 |"A" z2 E2 E F2 E- | %19
w: _ ered|SOME Girls are big ger than oth|ers Some|_ Girls are big ger than oth|Ers _|Some girls _ moth|
w: _ _||||||
w: _ _||||||
"F#m" E C2 E EEEE |"G#m" DD- D6 |"^CHORUS 2X each time" DB,- B,4 z2 :|"C#m" z2 z2 z2 z2 | %23
w: _ ers are big ger than oth|_ er girls|moth ers. _||
w: ||||
w: ||||
"A" (3:2:2G2 E- E<"B"G G F3- |"C#m" F2 z2 z2 G/z/G- |"A" GE- (3:2:2E"B" G2 G2 F2- |"C#m" F8 | %27
w: Send me _ the pil low|_ The one|_ that _ you dream on|_|
w: ||||
w: ||||
"A" z2 z G"B" G2 F2 |"E" E2 G2- GA (3:2:2G A2 | G2"Eb" E4 z2 |] %30
w: and I said|dream on _ _ _ _|_ !|
w: |||
w: |||

